X: 23
T: Colored Aristocracy
R: reel
M: C
L: 1/8
K: G
D2E2F2|: "G"G2GA GE D2 | G6 A2 | B2Bc BAGF |"Em" E8 | "C"e3fg2e2 |
"G"d2ed-dB AG|1 "A7"A2 B2c2^c2 |"D7"d2c2B2A2 :|2 "A7"A2Bd-"D"dB A2 | "G"G6f2||
|: "G"g2 ga ged2 | "Em"e8 | "C"e3fe2d2 | "Em"B8  | "C"e3fg2e2 |
 "G"d2ed-dBG2|1 "A7"A2B2 c2^c2 | "D7"d2^d2 e2f2 :|2 "G"A2Bd-"D"dBA2 | "G"G4 |]
